docs/src/assets/logo.svg

<?xml version="1.0" encoding="UTF-8" standalone="no"?>
<svg width="258px" height="286px" viewBox="0 0 258 286" version="1.1" xmlns="http://www.w3.org/2000/svg" xmlns:xlink="http://www.w3.org/1999/xlink" xmlns:sketch="http://www.bohemiancoding.com/sketch/ns">
    <!-- Generator: Sketch 3.0.4 (8053) - http://www.bohemiancoding.com/sketch -->
    <title>logo</title>
    <desc>Created with Sketch.</desc>
    <defs>
        <linearGradient x1="50%" y1="0%" x2="100%" y2="106.109119%" id="linearGradient-1">
            <stop stop-color="#F88383" offset="0%"></stop>
            <stop stop-color="#FF6767" offset="100%"></stop>
        </linearGradient>
        <linearGradient x1="50%" y1="0%" x2="50%" y2="100%" id="linearGradient-2">
            <stop stop-color="#E74747" offset="0%"></stop>
            <stop stop-color="#FF8787" offset="100%"></stop>
        </linearGradient>
    </defs>
    <g id="Page-1" stroke="none" stroke-width="1" fill="none" fill-rule="evenodd" sketch:type="MSPage">
        <path d="M127.115236,72.9951172 C127.115236,72.9951172 116.47414,45.7839289 112.100588,32.0263672 C111.940936,31.5241633 57.1404057,102.599541 57.1404057,102.599541 L80.8242188,151.570312 L120.16992,132.539062 L127.115236,72.9951172 Z" id="Path-2" fill="url(#linearGradient-1)" sketch:type="MSShapeGroup" transform="translate(92.000000, 92.000000) scale(1, -1) translate(-92.000000, -92.000000) "></path>
        <path d="M205.386721,72.1328125 L188.240236,32.2431641 L134.140406,101.599541 L157.824219,150.570312 L197.16992,131.539062 L205.386721,72.1328125 Z" id="Path-5" fill="url(#linearGradient-1)" sketch:type="MSShapeGroup" transform="translate(169.500000, 91.500000) scale(-1, -1) translate(-169.500000, -91.500000) "></path>
        <path d="M112.395508,151.296875 L107.227218,127.32847 L80.6574707,32.3676758 L57.3596191,81.4460449 L112.395508,151.296875 Z" id="Path-6" fill="url(#linearGradient-2)" sketch:type="MSShapeGroup"></path>
        <path d="M150.881348,150.458984 L181.213867,32.4882812 L142.55957,51.0537109 L133.553711,111.572266 L150.881348,150.458984 Z" id="Path-7" fill="url(#linearGradient-2)" sketch:type="MSShapeGroup"></path>
        <path d="M131.098242,112.98753 L115.535156,134.00586 L130.47998,175.587891 L147.335205,134.541748 L131.098242,112.98753 Z" id="Path-8" fill="#505050" sketch:type="MSShapeGroup" transform="translate(131.500000, 144.500000) scale(1, -1) translate(-131.500000, -144.500000) "></path>
        <path d="M130.510742,113.462402 L147.493652,154.408203 L131.039062,175.881836 L130.510742,113.462402 Z" id="Path-18" fill="#7A7A7A" sketch:type="MSShapeGroup"></path>
        <path d="M43.412,233.637 L43.412,238.398 C41.825,239.571 38.858,240.399 36.512,240.399 C25.334,240.399 23.747,229.221 23.747,225.633 C23.747,222.045 25.334,211.419 36.512,211.419 C39.893,211.419 44.24,213.489 47.138,216.042 C47.621,216.456 48.38,216.456 48.863,215.973 L54.038,210.315 C54.521,209.832 54.521,209.004 54.038,208.521 C49.346,203.898 43.895,201 36.512,201 C18.158,201 12.5,215.697 12.5,225.771 C12.5,236.121 18.158,250.611 36.512,250.611 C43.619,250.611 49.07,248.265 53.624,244.056 C54.176,243.504 54.521,242.745 54.521,241.917 L54.521,224.736 C54.521,224.046 53.969,223.494 53.279,223.494 L35.477,223.494 C34.787,223.494 34.235,224.046 34.235,224.736 L34.235,232.395 C34.235,233.085 34.787,233.637 35.477,233.637 L43.412,233.637 Z M88.262,248.817 C88.538,249.507 89.228,249.99 89.987,249.99 L98.888,249.99 C99.44,249.99 99.854,249.369 99.578,248.886 L81.362,209.901 C81.224,209.625 80.948,209.418 80.603,209.418 C80.258,209.418 79.982,209.625 79.844,209.901 L61.628,248.886 C61.352,249.369 61.766,249.99 62.318,249.99 L71.219,249.99 C71.978,249.99 72.668,249.507 72.944,248.817 L75.29,242.814 L85.847,242.814 L88.262,248.817 Z M80.534,229.704 L83.225,236.397 L77.843,236.397 L80.534,229.704 Z M122.21,249.99 C137.114,249.99 141.737,237.777 141.737,229.359 C141.737,221.217 137.114,209.625 122.21,209.625 L108.962,209.625 C108.272,209.625 107.72,210.177 107.72,210.867 L107.72,248.748 C107.72,249.438 108.272,249.99 108.962,249.99 L122.21,249.99 Z M118.139,240.123 L118.139,219.354 L122.21,219.354 C130.076,219.354 131.249,226.806 131.249,229.359 C131.249,231.981 130.076,240.123 122.21,240.123 L118.139,240.123 Z M173.477,234.672 C174.167,234.672 174.719,234.12 174.719,233.43 L174.719,226.047 C174.719,225.357 174.167,224.805 173.477,224.805 L161.126,224.805 L161.126,219.492 L177.341,219.492 C178.031,219.492 178.583,218.94 178.583,218.25 L178.583,210.936 C178.583,210.246 178.031,209.694 177.341,209.694 L151.949,209.694 C151.259,209.694 150.707,210.246 150.707,210.936 L150.707,248.748 C150.707,249.438 151.259,249.99 151.949,249.99 L159.884,249.99 C160.574,249.99 161.126,249.438 161.126,248.748 L161.126,234.672 L173.477,234.672 Z M198.8,210.867 C198.8,210.177 198.248,209.625 197.558,209.625 L189.485,209.625 C188.795,209.625 188.243,210.177 188.243,210.867 L188.243,248.748 C188.243,249.438 188.795,249.99 189.485,249.99 L212.945,249.99 C213.635,249.99 214.187,249.438 214.187,248.748 L214.187,241.365 C214.187,240.675 213.635,240.123 212.945,240.123 L198.8,240.123 L198.8,210.867 Z M235.577,232.464 L248.687,210.729 C248.963,210.315 248.618,209.694 248.066,209.694 L238.613,209.694 C237.854,209.694 237.164,210.108 236.75,210.798 L230.264,222.39 L223.985,210.798 C223.571,210.108 222.881,209.694 222.122,209.694 L212.669,209.694 C212.117,209.694 211.772,210.315 212.048,210.729 L225.158,232.533 L225.158,248.748 C225.158,249.438 225.71,249.99 226.4,249.99 L234.335,249.99 C235.025,249.99 235.577,249.438 235.577,248.748 L235.577,232.464 Z" id="Gadfly" fill="#505050" sketch:type="MSShapeGroup"></path>
        <path d="M150.75293,150.615234 L181.599609,32.1025391" id="Path-23" stroke="#FFFBFB" opacity="0.312383396" sketch:type="MSShapeGroup"></path>
        <path d="M130.5,178.5 L130.5,109.5" id="Path-25" stroke="#FFFBFB" opacity="0.312383396" sketch:type="MSShapeGroup"></path>
        <path d="M80.7529297,150.615234 L111.599609,32.1025391" id="Path-24" stroke="#FFFBFB" opacity="0.312383396" sketch:type="MSShapeGroup" transform="translate(96.500000, 91.500000) scale(-1, 1) translate(-96.500000, -91.500000) "></path>
    </g>
</svg>

<?xml version="1.0" encoding="UTF-8" standalone="no"?>
<svg
   xmlns:sketch="http://www.bohemiancoding.com/sketch/ns"
   xmlns:dc="http://purl.org/dc/elements/1.1/"
   xmlns:cc="http://creativecommons.org/ns#"
   xmlns:rdf="http://www.w3.org/1999/02/22-rdf-syntax-ns#"
   xmlns:svg="http://www.w3.org/2000/svg"
   xmlns="http://www.w3.org/2000/svg"
   xmlns:xlink="http://www.w3.org/1999/xlink"
   xmlns:sodipodi="http://sodipodi.sourceforge.net/DTD/sodipodi-0.dtd"
   xmlns:inkscape="http://www.inkscape.org/namespaces/inkscape"
   width="76.684631mm"
   height="71.703484mm"
   viewBox="0 0 271.71721 254.06746"
   version="1.1"
   id="svg2"
   inkscape:version="0.91 r13725"
   sodipodi:docname="logo.svg">
  <metadata
     id="metadata33">
    <rdf:RDF>
      <cc:Work
         rdf:about="">
        <dc:format>image/svg+xml</dc:format>
        <dc:type
           rdf:resource="http://purl.org/dc/dcmitype/StillImage" />
        <dc:title>logo</dc:title>
      </cc:Work>
    </rdf:RDF>
  </metadata>
  <sodipodi:namedview
     pagecolor="#ffffff"
     bordercolor="#666666"
     borderopacity="1"
     objecttolerance="10"
     gridtolerance="10"
     guidetolerance="10"
     inkscape:pageopacity="0"
     inkscape:pageshadow="2"
     inkscape:window-width="1049"
     inkscape:window-height="751"
     id="namedview31"
     showgrid="false"
     fit-margin-top="5"
     fit-margin-left="5"
     fit-margin-right="5"
     fit-margin-bottom="5"
     units="mm"
     inkscape:zoom="0.8768354"
     inkscape:cx="96.662496"
     inkscape:cy="182.98123"
     inkscape:window-x="0"
     inkscape:window-y="0"
     inkscape:window-maximized="0"
     inkscape:current-layer="svg2" />
  <!-- Generator: Sketch 3.0.4 (8053) - http://www.bohemiancoding.com/sketch -->
  <title
     id="title4">logo</title>
  <desc
     id="desc6">Created with Sketch.</desc>
  <defs
     id="defs8">
    <linearGradient
       x1="0.5"
       y1="0"
       x2="1"
       y2="1.0610912"
       id="linearGradient-1">
      <stop
         stop-color="#F88383"
         offset="0%"
         id="stop11" />
      <stop
         stop-color="#FF6767"
         offset="100%"
         id="stop13" />
    </linearGradient>
    <linearGradient
       x1="0.5"
       y1="0"
       x2="0.5"
       y2="1"
       id="linearGradient-2">
      <stop
         stop-color="#E74747"
         offset="0%"
         id="stop16" />
      <stop
         stop-color="#FF8787"
         offset="100%"
         id="stop18" />
    </linearGradient>
    <linearGradient
       inkscape:collect="always"
       xlink:href="#linearGradient-1"
       id="linearGradient10725"
       x1="120.41718"
       y1="24.500452"
       x2="166.14806"
       y2="121.54972"
       gradientTransform="scale(0.76507205,1.3070664)"
       gradientUnits="userSpaceOnUse" />
    <linearGradient
       inkscape:collect="always"
       xlink:href="#linearGradient-1"
       id="linearGradient10727"
       x1="218.77893"
       y1="25.019386"
       x2="264.68747"
       y2="122.44566"
       gradientTransform="scale(0.77595939,1.2887272)"
       gradientUnits="userSpaceOnUse" />
    <linearGradient
       inkscape:collect="always"
       xlink:href="#linearGradient-2"
       id="linearGradient10729"
       x1="124.77114"
       y1="22.018629"
       x2="124.77114"
       y2="102.92212"
       gradientTransform="scale(0.680266,1.4700132)"
       gradientUnits="userSpaceOnUse" />
    <linearGradient
       inkscape:collect="always"
       xlink:href="#linearGradient-2"
       id="linearGradient10731"
       x1="247.61066"
       y1="20.649874"
       x2="247.61066"
       y2="95.633224"
       gradientTransform="scale(0.63560993,1.573292)"
       gradientUnits="userSpaceOnUse" />
  </defs>
  <g
     id="Page-1"
     sketch:type="MSPage"
     style="fill:none;fill-rule:evenodd;stroke:none;stroke-width:1"
     transform="translate(5.2165365,-14.260066)">
    <path
       d="m 127.11524,72.995117 c 0,0 -10.6411,-27.211188 -15.01465,-40.96875 -0.15965,-0.502204 -54.960184,70.573173 -54.960184,70.573173 l 23.683813,48.97077 39.345701,-19.03125 6.94532,-59.543943 z"
       id="Path-2"
       sketch:type="MSShapeGroup"
       transform="matrix(1,0,0,-1,0,184)"
       inkscape:connector-curvature="0"
       style="fill:url(#linearGradient10725)" />
    <path
       d="m 205.38672,72.132812 -17.14648,-39.889648 -54.09983,69.356376 23.68381,48.97077 39.3457,-19.03125 8.2168,-59.406248 z"
       id="Path-5"
       sketch:type="MSShapeGroup"
       transform="matrix(-1,0,0,-1,339,183)"
       inkscape:connector-curvature="0"
       style="fill:url(#linearGradient10727)" />
    <path
       d="M 112.39551,151.29687 107.22722,127.32847 80.657471,32.367676 57.359619,81.446045 112.39551,151.29687 Z"
       id="Path-6"
       sketch:type="MSShapeGroup"
       inkscape:connector-curvature="0"
       style="fill:url(#linearGradient10729)" />
    <path
       d="m 150.88135,150.45898 30.33252,-117.970699 -38.6543,18.56543 -9.00586,60.518559 17.32764,38.88671 z"
       id="Path-7"
       sketch:type="MSShapeGroup"
       inkscape:connector-curvature="0"
       style="fill:url(#linearGradient10731)" />
    <path
       d="m 131.09824,112.98753 -15.56308,21.01833 14.94482,41.58203 16.85522,-41.04614 -16.23696,-21.55422 z"
       id="Path-8"
       sketch:type="MSShapeGroup"
       transform="matrix(1,0,0,-1,0,289)"
       inkscape:connector-curvature="0"
       style="fill:#505050" />
    <path
       d="m 130.51074,113.4624 16.98291,40.9458 -16.45459,21.47364 -0.52832,-62.41944 z"
       id="Path-18"
       sketch:type="MSShapeGroup"
       inkscape:connector-curvature="0"
       style="fill:#7a7a7a" />
    <path
       d="m 43.412,233.637 0,4.761 c -1.587,1.173 -4.554,2.001 -6.9,2.001 -11.178,0 -12.765,-11.178 -12.765,-14.766 0,-3.588 1.587,-14.214 12.765,-14.214 3.381,0 7.728,2.07 10.626,4.623 0.483,0.414 1.242,0.414 1.725,-0.069 l 5.175,-5.658 c 0.483,-0.483 0.483,-1.311 0,-1.794 C 49.346,203.898 43.895,201 36.512,201 18.158,201 12.5,215.697 12.5,225.771 c 0,10.35 5.658,24.84 24.012,24.84 7.107,0 12.558,-2.346 17.112,-6.555 0.552,-0.552 0.897,-1.311 0.897,-2.139 l 0,-17.181 c 0,-0.69 -0.552,-1.242 -1.242,-1.242 l -17.802,0 c -0.69,0 -1.242,0.552 -1.242,1.242 l 0,7.659 c 0,0.69 0.552,1.242 1.242,1.242 l 7.935,0 z m 44.85,15.18 c 0.276,0.69 0.966,1.173 1.725,1.173 l 8.901,0 c 0.552,0 0.966,-0.621 0.69,-1.104 L 81.362,209.901 c -0.138,-0.276 -0.414,-0.483 -0.759,-0.483 -0.345,0 -0.621,0.207 -0.759,0.483 l -18.216,38.985 c -0.276,0.483 0.138,1.104 0.69,1.104 l 8.901,0 c 0.759,0 1.449,-0.483 1.725,-1.173 l 2.346,-6.003 10.557,0 2.415,6.003 z m -7.728,-19.113 2.691,6.693 -5.382,0 2.691,-6.693 z m 41.676,20.286 c 14.904,0 19.527,-12.213 19.527,-20.631 0,-8.142 -4.623,-19.734 -19.527,-19.734 l -13.248,0 c -0.69,0 -1.242,0.552 -1.242,1.242 l 0,37.881 c 0,0.69 0.552,1.242 1.242,1.242 l 13.248,0 z m -4.071,-9.867 0,-20.769 4.071,0 c 7.866,0 9.039,7.452 9.039,10.005 0,2.622 -1.173,10.764 -9.039,10.764 l -4.071,0 z m 55.338,-5.451 c 0.69,0 1.242,-0.552 1.242,-1.242 l 0,-7.383 c 0,-0.69 -0.552,-1.242 -1.242,-1.242 l -12.351,0 0,-5.313 16.215,0 c 0.69,0 1.242,-0.552 1.242,-1.242 l 0,-7.314 c 0,-0.69 -0.552,-1.242 -1.242,-1.242 l -25.392,0 c -0.69,0 -1.242,0.552 -1.242,1.242 l 0,37.812 c 0,0.69 0.552,1.242 1.242,1.242 l 7.935,0 c 0.69,0 1.242,-0.552 1.242,-1.242 l 0,-14.076 12.351,0 z M 198.8,210.867 c 0,-0.69 -0.552,-1.242 -1.242,-1.242 l -8.073,0 c -0.69,0 -1.242,0.552 -1.242,1.242 l 0,37.881 c 0,0.69 0.552,1.242 1.242,1.242 l 23.46,0 c 0.69,0 1.242,-0.552 1.242,-1.242 l 0,-7.383 c 0,-0.69 -0.552,-1.242 -1.242,-1.242 l -14.145,0 0,-29.256 z m 36.777,21.597 13.11,-21.735 c 0.276,-0.414 -0.069,-1.035 -0.621,-1.035 l -9.453,0 c -0.759,0 -1.449,0.414 -1.863,1.104 l -6.486,11.592 -6.279,-11.592 c -0.414,-0.69 -1.104,-1.104 -1.863,-1.104 l -9.453,0 c -0.552,0 -0.897,0.621 -0.621,1.035 l 13.11,21.804 0,16.215 c 0,0.69 0.552,1.242 1.242,1.242 l 7.935,0 c 0.69,0 1.242,-0.552 1.242,-1.242 l 0,-16.284 z"
       id="Gadfly"
       sketch:type="MSShapeGroup"
       inkscape:connector-curvature="0"
       style="fill:#505050" />
    <path
       d="M 150.75293,150.61523 181.59961,32.102539"
       id="Path-23"
       sketch:type="MSShapeGroup"
       inkscape:connector-curvature="0"
       style="opacity:0.31238337;stroke:#fffbfb" />
    <path
       d="m 130.5,178.5 0,-69"
       id="Path-25"
       sketch:type="MSShapeGroup"
       inkscape:connector-curvature="0"
       style="opacity:0.31238337;stroke:#fffbfb" />
    <path
       d="M 80.75293,150.61523 111.59961,32.102539"
       id="Path-24"
       sketch:type="MSShapeGroup"
       transform="matrix(-1,0,0,1,193,0)"
       inkscape:connector-curvature="0"
       style="opacity:0.31238337;stroke:#fffbfb" />
  </g>
</svg>
